X:1
T:Title
%%score { ( 1 3 ) | ( 2 4 ) }
L:1/8
Q:1/4=84
M:6/8
K:Eb
V:1 treble nm="Grand Piano"
V:3 treble 
V:2 bass 
V:4 bass 
V:1
 GGG GFG | [GB]3 [FA]3 | [FA][FA][FA] [FA][Ac][GB] | [EG]6 | [Ge][Ge][Ge] [Ge][Bd][Ac] | [GB]3 G3 | %6
w: C.~E.~Brownell * * * * *||||||
 FBc dBc | [DB]6 | [DB][B,DF][B,EG] [FA][EG][DF] | [EG]3 [EB]3 | [=Ec][Ec][Ec] [Ec][EG][GB] | %11
w: |||||
 [FA]6 | [DF][Ad][Ad] [Ad][Ac][Ad] | [Ge]3 G3 | GGG [DB][DF][DG] | [B,E]6 | [Ec]3 z3 | [EB]3 z3 | %18
w: |||||||
 [FA][FA][FA] [FA][GB][FA] | [EG]6 | [Ec]3 z3 | [GB]3 z3 | %22
w: ||||
 GGG [B,DB][A,DF][B,DG][Q:1/4=83][Q:1/4=82][Q:1/4=80][Q:1/4=79][Q:1/4=78][Q:1/4=77][Q:1/4=75][Q:1/4=74][Q:1/4=73][Q:1/4=72][Q:1/4=70][Q:1/4=69] | %23
w: |
 E6[Q:1/4=68][Q:1/4=67][Q:1/4=65][Q:1/4=64] |] %24
w: |
V:2
 [E,B,E][E,B,E][E,B,E] [E,B,E][E,B,D][E,B,E] | [B,,B,]3 [B,,B,]3 | %2
 [B,,B,][B,,B,][B,,B,] [B,,B,][B,,B,][B,,B,] | [E,B,]6 | [E,B,][E,B,][E,B,] [E,B,][E,E][E,E] | %5
 [E,E]3 [E,B,E]3 | [F,B,D][F,B,D][F,=A,E] [F,B,F][F,D][F,E] | [B,,F,]6 | %8
 [B,,F,]B,,A,, [B,,B,][B,,B,][B,,B,] | [E,B,]3 [E,G,]3 | [C,G,][C,G,][C,G,] [C,G,][C,C][C,C] | %11
 [F,C]6 | [B,,B,][B,,B,][B,,B,] [B,,B,][B,,B,]B,, | [E,B,]3 [E,B,E]3 | %14
 [E,B,E][E,B,E][E,B,E] [B,,B,][B,,B,][B,,B,] | [E,G,]6 | [A,,A,]A,,A,, .[A,,A,]3 | %17
 [E,G,]E,E, .[E,G,E]3 | [B,,B,][B,,B,][B,,B,] [B,,B,][B,,B,][B,,B,] | [E,B,]E,E, .E,3 | %20
 A,A,A, .A,3 | E,E,E, .[E,B,E]3 | [E,B,E][E,B,E][E,B,E] B,,B,,B,, | z G,A, .G,3 |] %24
V:3
 x6 | x6 | x6 | x6 | x6 | x6 | x6 | x6 | x6 | x6 | x6 | x6 | x6 | x6 | x6 | x6 | z A,A, .[Ec]3 | %17
 z G,G, .B3 | x6 | z B,B, .B,3 | z2 C .[EAc]3 | EEE .G3 | x6 | [G,B,]B,C .B,3 |] %24
V:4
 x6 | x6 | x6 | x6 | x6 | x6 | x6 | x6 | x6 | x6 | x6 | x6 | x6 | x6 | x6 | x6 | x6 | x6 | x6 | %19
 x6 | x6 | x6 | x6 | E,6 |] %24

